P1
# PMos compact Unicode-ready ASCII atlas; codepoint = cell row * 16 + column
# cell 8x14; 256 codepoint slots
128 224
00000000000000000000000000000000000000000000000000000000000000000000000000000000000000000000000000000000000000000000000000000000
00000000000000000000000000000000000000000000000000000000000000000000000000000000000000000000000000000000000000000000000000000000
00000000000000000000000000000000000000000000000000000000000000000000000000000000000000000000000000000000000000000000000000000000
00000000000000000000000000000000000000000000000000000000000000000000000000000000000000000000000000000000000000000000000000000000
00000000000000000000000000000000000000000000000000000000000000000000000000000000000000000000000000000000000000000000000000000000
00000000000000000000000000000000000000000000000000000000000000000000000000000000000000000000000000000000000000000000000000000000
00000000000000000000000000000000000000000000000000000000000000000000000000000000000000000000000000000000000000000000000000000000
00000000000000000000000000000000000000000000000000000000000000000000000000000000000000000000000000000000000000000000000000000000
00000000000000000000000000000000000000000000000000000000000000000000000000000000000000000000000000000000000000000000000000000000
00000000000000000000000000000000000000000000000000000000000000000000000000000000000000000000000000000000000000000000000000000000
00000000000000000000000000000000000000000000000000000000000000000000000000000000000000000000000000000000000000000000000000000000
00000000000000000000000000000000000000000000000000000000000000000000000000000000000000000000000000000000000000000000000000000000
00000000000000000000000000000000000000000000000000000000000000000000000000000000000000000000000000000000000000000000000000000000
00000000000000000000000000000000000000000000000000000000000000000000000000000000000000000000000000000000000000000000000000000000
00000000000000000000000000000000000000000000000000000000000000000000000000000000000000000000000000000000000000000000000000000000
00000000000000000000000000000000000000000000000000000000000000000000000000000000000000000000000000000000000000000000000000000000
00000000000000000000000000000000000000000000000000000000000000000000000000000000000000000000000000000000000000000000000000000000
00000000000000000000000000000000000000000000000000000000000000000000000000000000000000000000000000000000000000000000000000000000
00000000000000000000000000000000000000000000000000000000000000000000000000000000000000000000000000000000000000000000000000000000
00000000000000000000000000000000000000000000000000000000000000000000000000000000000000000000000000000000000000000000000000000000
00000000000000000000000000000000000000000000000000000000000000000000000000000000000000000000000000000000000000000000000000000000
00000000000000000000000000000000000000000000000000000000000000000000000000000000000000000000000000000000000000000000000000000000
00000000000000000000000000000000000000000000000000000000000000000000000000000000000000000000000000000000000000000000000000000000
00000000000000000000000000000000000000000000000000000000000000000000000000000000000000000000000000000000000000000000000000000000
00000000000000000000000000000000000000000000000000000000000000000000000000000000000000000000000000000000000000000000000000000000
00000000000000000000000000000000000000000000000000000000000000000000000000000000000000000000000000000000000000000000000000000000
00000000000000000000000000000000000000000000000000000000000000000000000000000000000000000000000000000000000000000000000000000000
00000000000000000000000000000000000000000000000000000000000000000000000000000000000000000000000000000000000000000000000000000000
00000000000100000010100000101000011111000111110001111100000100000000100000100000000000000000000000000000000000000000000000000100
00000000000100000010100000101000011111000111110001111100000100000000100000100000000000000000000000000000000000000000000000000100
00000000000100000010100000101000010001000100010001000100000100000001000000010000001010000001000000000000000000000000000000001000
00000000000100000010100000101000010001000100010001000100000100000001000000010000001010000001000000000000000000000000000000001000
00000000000100000010100001111100010001000100010001000100000100000010000000001000000100000001000000000000000000000000000000001000
00000000000100000010100001111100010001000100010001000100000100000010000000001000000100000001000000000000000000000000000000001000
00000000000100000000000000101000010001000100010001000100000000000010000000001000011111000111110000000000011111000000000000010000
00000000000100000000000000101000010001000100010001000100000000000010000000001000011111000111110000000000011111000000000000010000
00000000000100000000000001111100010001000100010001000100000000000010000000001000000100000001000000000000000000000000000000100000
00000000000100000000000001111100010001000100010001000100000000000010000000001000000100000001000000000000000000000000000000100000
00000000000000000000000000101000010001000100010001000100000000000001000000010000001010000001000000010000000000000000000000100000
00000000000000000000000000101000010001000100010001000100000000000001000000010000001010000001000000010000000000000000000000100000
00000000000100000000000000101000011111000111110001111100000000000000100000100000000000000000000000100000000000000001000001000000
00000000000100000000000000101000011111000111110001111100000000000000100000100000000000000000000000100000000000000001000001000000
00111000000100000011100001111100000010000111110000011000011111000011100000111000000000000000000000001000000000000010000000111000
00111000000100000011100001111100000010000111110000011000011111000011100000111000000000000000000000001000000000000010000000111000
01000100001100000100010000001000000110000100000000100000000001000100010001000100000100000001000000010000000000000001000001000100
01000100001100000100010000001000000110000100000000100000000001000100010001000100000100000001000000010000000000000001000001000100
01001100000100000000010000010000001010000111100001000000000010000100010001000100000000000000000000100000011111000000100000001000
01001100000100000000010000010000001010000111100001000000000010000100010001000100000000000000000000100000011111000000100000001000
01010100000100000000100000001000010010000000010001111000000100000011100000111100000000000000000001000000000000000000010000010000
01010100000100000000100000001000010010000000010001111000000100000011100000111100000000000000000001000000000000000000010000010000
01100100000100000001000000000100011111000000010001000100001000000100010000000100000000000001000000100000011111000000100000010000
01100100000100000001000000000100011111000000010001000100001000000100010000000100000000000001000000100000011111000000100000010000
01000100000100000010000001000100000010000100010001000100001000000100010000001000000100000001000000010000000000000001000000000000
01000100000100000010000001000100000010000100010001000100001000000100010000001000000100000001000000010000000000000001000000000000
00111000001110000111110000111000000010000011100000111000001000000011100000110000000000000010000000001000000000000010000000010000
00111000001110000111110000111000000010000011100000111000001000000011100000110000000000000010000000001000000000000010000000010000
01111100001110000111100000111000011110000111110001111100001110000100010000111000000111000100010001000000010001000100010000111000
01111100001110000111100000111000011110000111110001111100001110000100010000111000000111000100010001000000010001000100010000111000
01000100010001000100010001000100010001000100000001000000010001000100010000010000000010000100100001000000011011000100010001000100
01000100010001000100010001000100010001000100000001000000010001000100010000010000000010000100100001000000011011000100010001000100
01000100010001000100010001000000010001000100000001000000010000000100010000010000000010000101000001000000010101000110010001000100
01000100010001000100010001000000010001000100000001000000010000000100010000010000000010000101000001000000010101000110010001000100
01000100011111000111100001000000010001000111100001111000010111000111110000010000000010000110000001000000010101000101010001000100
01000100011111000111100001000000010001000111100001111000010111000111110000010000000010000110000001000000010101000101010001000100
01000100010001000100010001000000010001000100000001000000010001000100010000010000000010000101000001000000010001000100110001000100
01000100010001000100010001000000010001000100000001000000010001000100010000010000000010000101000001000000010001000100110001000100
01000100010001000100010001000100010001000100000001000000010001000100010000010000010010000100100001000000010001000100010001000100
01000100010001000100010001000100010001000100000001000000010001000100010000010000010010000100100001000000010001000100010001000100
01111100010001000111100000111000011110000111110001000000001110000100010000111000001100000100010001111100010001000100010000111000
01111100010001000111100000111000011110000111110001000000001110000100010000111000001100000100010001111100010001000100010000111000
01111000001110000111100000111100011111000100010001000100010001000100010001000100011111000011100001111100001110000111110000000000
01111000001110000111100000111100011111000100010001000100010001000100010001000100011111000011100001111100001110000111110000000000
01000100010001000100010001000000000100000100010001000100010001000100010001000100000001000010000001000100000010000100010000000000
01000100010001000100010001000000000100000100010001000100010001000100010001000100000001000010000001000100000010000100010000000000
01000100010001000100010001000000000100000100010001000100010001000010100000101000000010000010000001000100000010000100010000000000
01000100010001000100010001000000000100000100010001000100010001000010100000101000000010000010000001000100000010000100010000000000
01111000010001000111100000111000000100000100010001000100010101000001000000010000000100000010000001000100000010000100010000000000
01111000010001000111100000111000000100000100010001000100010101000001000000010000000100000010000001000100000010000100010000000000
01000000010101000101000000000100000100000100010001000100010101000010100000010000001000000010000001000100000010000100010000000000
01000000010101000101000000000100000100000100010001000100010101000010100000010000001000000010000001000100000010000100010000000000
01000000010010000100100000000100000100000100010000101000011011000100010000010000010000000010000001000100000010000100010000000000
01000000010010000100100000000100000100000100010000101000011011000100010000010000010000000010000001000100000010000100010000000000
01000000001101000100010001111000000100000011100000010000010001000100010000010000011111000011100001111100001110000111110001111100
01000000001101000100010001111000000100000011100000010000010001000100010000010000011111000011100001111100001110000111110001111100
01111100000000000100000000000000000001000000000000011000000000000100000000010000000010000100000000110000000000000000000000000000
01111100000000000100000000000000000001000000000000011000000000000100000000010000000010000100000000110000000000000000000000000000
01000100000000000100000000000000000001000000000000100100000000000100000000000000000000000100000000010000000000000000000000000000
01000100000000000100000000000000000001000000000000100100000000000100000000000000000000000100000000010000000000000000000000000000
01000100001110000101100000111000001101000011100000100000001111000101100000110000000110000100100000010000011010000101100000111000
01000100001110000101100000111000001101000011100000100000001111000101100000110000000110000100100000010000011010000101100000111000
01000100000001000110010001000100010011000100010001111000010001000110010000010000000010000101000000010000010101000110010001000100
01000100000001000110010001000100010011000100010001111000010001000110010000010000000010000101000000010000010101000110010001000100
01000100001111000100010001000000010001000111110000100000001111000100010000010000000010000110000000010000010101000100010001000100
01000100001111000100010001000000010001000111110000100000001111000100010000010000000010000110000000010000010101000100010001000100
01000100010001000100010001000100010001000100000000100000000001000100010000010000010010000101000000010000010001000100010001000100
01000100010001000100010001000100010001000100000000100000000001000100010000010000010010000101000000010000010001000100010001000100
01111100001111000111100000111000001111000011100000100000001110000100010000111000001100000100100000111000010001000100010000111000
01111100001111000111100000111000001111000011100000100000001110000100010000111000001100000100100000111000010001000100010000111000
00000000000000000000000000000000001000000000000000000000000000000000000000000000000000000111110001111100011111000111110000000000
00000000000000000000000000000000001000000000000000000000000000000000000000000000000000000111110001111100011111000111110000000000
00000000000000000000000000000000001000000000000000000000000000000000000000000000000000000100010001000100010001000100010000000000
00000000000000000000000000000000001000000000000000000000000000000000000000000000000000000100010001000100010001000100010000000000
01111000001111000101100000111100011110000100010001000100010001000100010001000100011111000100010001000100010001000100010000000000
01111000001111000101100000111100011110000100010001000100010001000100010001000100011111000100010001000100010001000100010000000000
01000100010001000110010001000000001000000100010001000100010001000010100001000100000010000100010001000100010001000100010000000000
01000100010001000110010001000000001000000100010001000100010001000010100001000100000010000100010001000100010001000100010000000000
01111000001111000100000000111000001000000100010001000100010101000001000000111100000100000100010001000100010001000100010000000000
01111000001111000100000000111000001000000100010001000100010101000001000000111100000100000100010001000100010001000100010000000000
01000000000001000100000000000100001001000100110000101000010101000010100000000100001000000100010001000100010001000100010000000000
01000000000001000100000000000100001001000100110000101000010101000010100000000100001000000100010001000100010001000100010000000000
01000000000001000100000001111000000110000011010000010000001010000100010000111000011111000111110001111100011111000111110000000000
01000000000001000100000001111000000110000011010000010000001010000100010000111000011111000111110001111100011111000111110000000000
00000000000000000000000000000000000000000000000000000000000000000000000000000000000000000000000000000000000000000000000000000000
00000000000000000000000000000000000000000000000000000000000000000000000000000000000000000000000000000000000000000000000000000000
00000000000000000000000000000000000000000000000000000000000000000000000000000000000000000000000000000000000000000000000000000000
00000000000000000000000000000000000000000000000000000000000000000000000000000000000000000000000000000000000000000000000000000000
00000000000000000000000000000000000000000000000000000000000000000000000000000000000000000000000000000000000000000000000000000000
00000000000000000000000000000000000000000000000000000000000000000000000000000000000000000000000000000000000000000000000000000000
00000000000000000000000000000000000000000000000000000000000000000000000000000000000000000000000000000000000000000000000000000000
00000000000000000000000000000000000000000000000000000000000000000000000000000000000000000000000000000000000000000000000000000000
00000000000000000000000000000000000000000000000000000000000000000000000000000000000000000000000000000000000000000000000000000000
00000000000000000000000000000000000000000000000000000000000000000000000000000000000000000000000000000000000000000000000000000000
00000000000000000000000000000000000000000000000000000000000000000000000000000000000000000000000000000000000000000000000000000000
00000000000000000000000000000000000000000000000000000000000000000000000000000000000000000000000000000000000000000000000000000000
00000000000000000000000000000000000000000000000000000000000000000000000000000000000000000000000000000000000000000000000000000000
00000000000000000000000000000000000000000000000000000000000000000000000000000000000000000000000000000000000000000000000000000000
00000000000000000000000000000000000000000000000000000000000000000000000000000000000000000000000000000000000000000000000000000000
00000000000000000000000000000000000000000000000000000000000000000000000000000000000000000000000000000000000000000000000000000000
00000000000000000000000000000000000000000000000000000000000000000000000000000000000000000000000000000000000000000000000000000000
00000000000000000000000000000000000000000000000000000000000000000000000000000000000000000000000000000000000000000000000000000000
00000000000000000000000000000000000000000000000000000000000000000000000000000000000000000000000000000000000000000000000000000000
00000000000000000000000000000000000000000000000000000000000000000000000000000000000000000000000000000000000000000000000000000000
00000000000000000000000000000000000000000000000000000000000000000000000000000000000000000000000000000000000000000000000000000000
00000000000000000000000000000000000000000000000000000000000000000000000000000000000000000000000000000000000000000000000000000000
00000000000000000000000000000000000000000000000000000000000000000000000000000000000000000000000000000000000000000000000000000000
00000000000000000000000000000000000000000000000000000000000000000000000000000000000000000000000000000000000000000000000000000000
00000000000000000000000000000000000000000000000000000000000000000000000000000000000000000000000000000000000000000000000000000000
00000000000000000000000000000000000000000000000000000000000000000000000000000000000000000000000000000000000000000000000000000000
00000000000000000000000000000000000000000000000000000000000000000000000000000000000000000000000000000000000000000000000000000000
00000000000000000000000000000000000000000000000000000000000000000000000000000000000000000000000000000000000000000000000000000000
00000000000000000000000000000000000000000000000000000000000000000000000000000000000000000000000000000000000000000000000000000000
00000000000000000000000000000000000000000000000000000000000000000000000000000000000000000000000000000000000000000000000000000000
00000000000000000000000000000000000000000000000000000000000000000000000000000000000000000000000000000000000000000000000000000000
00000000000000000000000000000000000000000000000000000000000000000000000000000000000000000000000000000000000000000000000000000000
00000000000000000000000000000000000000000000000000000000000000000000000000000000000000000000000000000000000000000000000000000000
00000000000000000000000000000000000000000000000000000000000000000000000000000000000000000000000000000000000000000000000000000000
00000000000000000000000000000000000000000000000000000000000000000000000000000000000000000000000000000000000000000000000000000000
00000000000000000000000000000000000000000000000000000000000000000000000000000000000000000000000000000000000000000000000000000000
00000000000000000000000000000000000000000000000000000000000000000000000000000000000000000000000000000000000000000000000000000000
00000000000000000000000000000000000000000000000000000000000000000000000000000000000000000000000000000000000000000000000000000000
00000000000000000000000000000000000000000000000000000000000000000000000000000000000000000000000000000000000000000000000000000000
00000000000000000000000000000000000000000000000000000000000000000000000000000000000000000000000000000000000000000000000000000000
00000000000000000000000000000000000000000000000000000000000000000000000000000000000000000000000000000000000000000000000000000000
00000000000000000000000000000000000000000000000000000000000000000000000000000000000000000000000000000000000000000000000000000000
00000000000000000000000000000000000000000000000000000000000000000000000000000000000000000000000000000000000000000000000000000000
00000000000000000000000000000000000000000000000000000000000000000000000000000000000000000000000000000000000000000000000000000000
00000000000000000000000000000000000000000000000000000000000000000000000000000000000000000000000000000000000000000000000000000000
00000000000000000000000000000000000000000000000000000000000000000000000000000000000000000000000000000000000000000000000000000000
00000000000000000000000000000000000000000000000000000000000000000000000000000000000000000000000000000000000000000000000000000000
00000000000000000000000000000000000000000000000000000000000000000000000000000000000000000000000000000000000000000000000000000000
00000000000000000000000000000000000000000000000000000000000000000000000000000000000000000000000000000000000000000000000000000000
00000000000000000000000000000000000000000000000000000000000000000000000000000000000000000000000000000000000000000000000000000000
00000000000000000000000000000000000000000000000000000000000000000000000000000000000000000000000000000000000000000000000000000000
00000000000000000000000000000000000000000000000000000000000000000000000000000000000000000000000000000000000000000000000000000000
00000000000000000000000000000000000000000000000000000000000000000000000000000000000000000000000000000000000000000000000000000000
00000000000000000000000000000000000000000000000000000000000000000000000000000000000000000000000000000000000000000000000000000000
00000000000000000000000000000000000000000000000000000000000000000000000000000000000000000000000000000000000000000000000000000000
00000000000000000000000000000000000000000000000000000000000000000000000000000000000000000000000000000000000000000000000000000000
00000000000000000000000000000000000000000000000000000000000000000000000000000000000000000000000000000000000000000000000000000000
00000000000000000000000000000000000000000000000000000000000000000000000000000000000000000000000000000000000000000000000000000000
00000000000000000000000000000000000000000000000000000000000000000000000000000000000000000000000000000000000000000000000000000000
00000000000000000000000000000000000000000000000000000000000000000000000000000000000000000000000000000000000000000000000000000000
00000000000000000000000000000000000000000000000000000000000000000000000000000000000000000000000000000000000000000000000000000000
00000000000000000000000000000000000000000000000000000000000000000000000000000000000000000000000000000000000000000000000000000000
00000000000000000000000000000000000000000000000000000000000000000000000000000000000000000000000000000000000000000000000000000000
00000000000000000000000000000000000000000000000000000000000000000000000000000000000000000000000000000000000000000000000000000000
00000000000000000000000000000000000000000000000000000000000000000000000000000000000000000000000000000000000000000000000000000000
00000000000000000000000000000000000000000000000000000000000000000000000000000000000000000000000000000000000000000000000000000000
00000000000000000000000000000000000000000000000000000000000000000000000000000000000000000000000000000000000000000000000000000000
00000000000000000000000000000000000000000000000000000000000000000000000000000000000000000000000000000000000000000000000000000000
00000000000000000000000000000000000000000000000000000000000000000000000000000000000000000000000000000000000000000000000000000000
00000000000000000000000000000000000000000000000000000000000000000000000000000000000000000000000000000000000000000000000000000000
00000000000000000000000000000000000000000000000000000000000000000000000000000000000000000000000000000000000000000000000000000000
00000000000000000000000000000000000000000000000000000000000000000000000000000000000000000000000000000000000000000000000000000000
00000000000000000000000000000000000000000000000000000000000000000000000000000000000000000000000000000000000000000000000000000000
00000000000000000000000000000000000000000000000000000000000000000000000000000000000000000000000000000000000000000000000000000000
00000000000000000000000000000000000000000000000000000000000000000000000000000000000000000000000000000000000000000000000000000000
00000000000000000000000000000000000000000000000000000000000000000000000000000000000000000000000000000000000000000000000000000000
00000000000000000000000000000000000000000000000000000000000000000000000000000000000000000000000000000000000000000000000000000000
00000000000000000000000000000000000000000000000000000000000000000000000000000000000000000000000000000000000000000000000000000000
00000000000000000000000000000000000000000000000000000000000000000000000000000000000000000000000000000000000000000000000000000000
00000000000000000000000000000000000000000000000000000000000000000000000000000000000000000000000000000000000000000000000000000000
00000000000000000000000000000000000000000000000000000000000000000000000000000000000000000000000000000000000000000000000000000000
00000000000000000000000000000000000000000000000000000000000000000000000000000000000000000000000000000000000000000000000000000000
00000000000000000000000000000000000000000000000000000000000000000000000000000000000000000000000000000000000000000000000000000000
00000000000000000000000000000000000000000000000000000000000000000000000000000000000000000000000000000000000000000000000000000000
00000000000000000000000000000000000000000000000000000000000000000000000000000000000000000000000000000000000000000000000000000000
00000000000000000000000000000000000000000000000000000000000000000000000000000000000000000000000000000000000000000000000000000000
00000000000000000000000000000000000000000000000000000000000000000000000000000000000000000000000000000000000000000000000000000000
00000000000000000000000000000000000000000000000000000000000000000000000000000000000000000000000000000000000000000000000000000000
00000000000000000000000000000000000000000000000000000000000000000000000000000000000000000000000000000000000000000000000000000000
00000000000000000000000000000000000000000000000000000000000000000000000000000000000000000000000000000000000000000000000000000000
00000000000000000000000000000000000000000000000000000000000000000000000000000000000000000000000000000000000000000000000000000000
00000000000000000000000000000000000000000000000000000000000000000000000000000000000000000000000000000000000000000000000000000000
00000000000000000000000000000000000000000000000000000000000000000000000000000000000000000000000000000000000000000000000000000000
00000000000000000000000000000000000000000000000000000000000000000000000000000000000000000000000000000000000000000000000000000000
00000000000000000000000000000000000000000000000000000000000000000000000000000000000000000000000000000000000000000000000000000000
00000000000000000000000000000000000000000000000000000000000000000000000000000000000000000000000000000000000000000000000000000000
00000000000000000000000000000000000000000000000000000000000000000000000000000000000000000000000000000000000000000000000000000000
00000000000000000000000000000000000000000000000000000000000000000000000000000000000000000000000000000000000000000000000000000000
00000000000000000000000000000000000000000000000000000000000000000000000000000000000000000000000000000000000000000000000000000000
00000000000000000000000000000000000000000000000000000000000000000000000000000000000000000000000000000000000000000000000000000000
00000000000000000000000000000000000000000000000000000000000000000000000000000000000000000000000000000000000000000000000000000000
00000000000000000000000000000000000000000000000000000000000000000000000000000000000000000000000000000000000000000000000000000000
00000000000000000000000000000000000000000000000000000000000000000000000000000000000000000000000000000000000000000000000000000000
00000000000000000000000000000000000000000000000000000000000000000000000000000000000000000000000000000000000000000000000000000000
00000000000000000000000000000000000000000000000000000000000000000000000000000000000000000000000000000000000000000000000000000000
00000000000000000000000000000000000000000000000000000000000000000000000000000000000000000000000000000000000000000000000000000000
00000000000000000000000000000000000000000000000000000000000000000000000000000000000000000000000000000000000000000000000000000000
00000000000000000000000000000000000000000000000000000000000000000000000000000000000000000000000000000000000000000000000000000000
00000000000000000000000000000000000000000000000000000000000000000000000000000000000000000000000000000000000000000000000000000000
00000000000000000000000000000000000000000000000000000000000000000000000000000000000000000000000000000000000000000000000000000000
00000000000000000000000000000000000000000000000000000000000000000000000000000000000000000000000000000000000000000000000000000000
00000000000000000000000000000000000000000000000000000000000000000000000000000000000000000000000000000000000000000000000000000000
